gama.ui.shared/icons_svg/light/overlays/small.close.svg

<svg height="16" viewBox="-832 -3507.488 16 16" width="16" xmlns="http://www.w3.org/2000/svg"><g fill="none"><path d="m-825.9799-3499.4884-3.2527 3.2527 1.9799 1.9799 3.2527-3.2527 3.2527 3.2527 1.9799-1.9799-3.2527-3.2527 3.2527-3.2526-1.9799-1.98-3.2527 3.2527-3.2527-3.2527-1.9799 1.98z" fill="#fff"/><path d="m-825.9799-3499.4884-3.2527 3.2527 1.9799 1.9799 3.2527-3.2527 3.2527 3.2527 1.9799-1.9799-3.2527-3.2527 3.2527-3.2526-1.9799-1.98-3.2527 3.2527-3.2527-3.2527-1.9799 1.98z" stroke="#000" stroke-linecap="round" stroke-linejoin="round" stroke-width=".5"/></g></svg>

<?xml version="1.0" encoding="UTF-8" standalone="no"?>
<!DOCTYPE svg PUBLIC "-//W3C//DTD SVG 1.1//EN" "http://www.w3.org/Graphics/SVG/1.1/DTD/svg11.dtd">
<svg version="1.1" xmlns="http://www.w3.org/2000/svg" xmlns:xl="http://www.w3.org/1999/xlink" xmlns:dc="http://purl.org/dc/elements/1.1/" viewBox="-832 -3507.4884 16.000008 16.000008" width="16.000008" height="16.000008">
  <defs/>
  <g id="SOURCES" stroke-dasharray="none" fill="none" stroke="none" fill-opacity="1" stroke-opacity="1">
    <title>SOURCES</title>
    <g id="SOURCES_Calque_2">
      <title>Calque 2</title>
      <g id="Group_9387">
        <g id="Graphic_9384">
          <path d="M -825.9799 -3499.4884 L -829.2326 -3496.2357 L -827.2527 -3494.2558 L -824 -3497.5085 L -820.7473 -3494.2558 L -818.7674 -3496.2357 L -822.0201 -3499.4884 L -818.7674 -3502.741 L -820.7473 -3504.721 L -824 -3501.4683 L -827.2527 -3504.721 L -829.2326 -3502.741 Z" fill="white"/>
          <path d="M -825.9799 -3499.4884 L -829.2326 -3496.2357 L -827.2527 -3494.2558 L -824 -3497.5085 L -820.7473 -3494.2558 L -818.7674 -3496.2357 L -822.0201 -3499.4884 L -818.7674 -3502.741 L -820.7473 -3504.721 L -824 -3501.4683 L -827.2527 -3504.721 L -829.2326 -3502.741 Z" stroke="black" stroke-linecap="round" stroke-linejoin="round" stroke-width=".5"/>
        </g>
        <g id="Graphic_9386"/>
      </g>
    </g>
  </g>
</svg>
